school_project/img/icons/plus.svg

<svg width="30" height="30" viewBox="0 0 30 30" fill="none" xmlns="http://www.w3.org/2000/svg"><path d="M17 2h-4v11H2v4h11v11h4V17h11v-4H17V2z" fill="#BEA58A"/></svg>

<svg width="30" height="30" viewBox="0 0 30 30" fill="none" xmlns="http://www.w3.org/2000/svg">
<path d="M17 2H13V13H2V17H13V28H17V17H28V13H17V2Z" fill="#BEA58A"/>
</svg>
